X: 16
I: linebreak $
T: Turkish Bransle
T: Schiarazula Marazula
C: Giorgio Mainerio, Il Primo Libro di Balli, 1578
C: 
P: 
N: 
K: G minor
M: 4/4
L: 1/8
P: A
 |: d2 | "Gm"d2c2 d2c2 | "Gm"B2B2 B2A2 | "Gm"G2F2 G2A2 | "Gm"G2G2 G2d2 | "Gm"d2c2 d2c2 | "Gm"B2B2 B2A2 | 
"Gm"G2F2 G2A2 | "Gm"G2G2 G2cB | 
P: B
"F"A2G2 A2B2 | "F"A2G2 A2dc | "Gm"B2G2 "Dsus4"G2^F2 | "Gm"G2G2 G2cB | 
"F"A2G2 A2B2 | "F"A2G2 A2dc | "Gm"B2G2 "Dsus4"G2^F2 | "G"G6 :| 

